X: 2
T: A Mile Down The Road
Z: bogman
S: https://thesession.org/tunes/4349#setting17033
R: hornpipe
M: 4/4
L: 1/8
K: Amaj
E>F A>B |: c3d B3c | A>ce<c d2 (3Bcd | e>fa<e c3e | f>ed<c B2 A>B | c3d B3c | A>ce<c d2 (3Bcd | e>fa>f e>cB>d |1 c2 A2 A>EA>B :|2 c2 A2 A>Bc>e |||: f4 f3 c | e>fa<c e2 (3efg | a3f e>Ac<e | f>ed<c B2 c>e| f4 f2 f>g | a>gf<e c2 (3ABc | d>B (3BBB c<eA>c | (3BcB A>B c>e |f4 f3 c | e>fa<c e2 (3efg | a3f e>Ac<e | f>ed<c B2 A>B |c3d B3c | A>ce<c d2 (3Bcd | e>fa>f e>cB>d |c2 A2 A>EA>B ||
